X:2235
T:Come all ye wand'ring pilgrims dear
C:John Lace also Mrs Callister
C:Traditional
O:Isle of Man
Z:Clague collection
B:Kiaull Vannin #235 
M:2/4  
L:1/8
K:D 
F|A>F A>F|AA DF|GB EE|D3/2 F|A>F A>F|AA DF|GB EE|D3 A|
d>c B>A|BB Ad|BG GA|dB cd|dd dB|AA DF|GB EE|D3||

